assets/sonr-icons/design.svg

<svg xmlns="http://www.w3.org/2000/svg" width="24" height="24" fill="none" viewBox="0 0 24 24"><path fill="#000" d="M10.08 5.28003C9.01984 5.28003 8.16003 6.13984 8.16003 7.20003 8.16003 8.26022 9.01984 9.12003 10.08 9.12003 11.1402 9.12003 12 8.26022 12 7.20003 12 6.13984 11.1402 5.28003 10.08 5.28003ZM15.84 6.24003C14.7798 6.24003 13.92 7.09984 13.92 8.16003 13.92 9.22022 14.7798 10.08 15.84 10.08 16.9002 10.08 17.76 9.22022 17.76 8.16003 17.76 7.09984 16.9002 6.24003 15.84 6.24003ZM7.20003 10.08C6.13984 10.08 5.28003 10.9398 5.28003 12 5.28003 13.0602 6.13984 13.92 7.20003 13.92 8.26022 13.92 9.12003 13.0602 9.12003 12 9.12003 10.9398 8.26022 10.08 7.20003 10.08Z"/><path fill="#000" fill-rule="evenodd" d="M12.0001 1.44006C6.16787 1.44006 1.44006 6.16787 1.44006 12.0001C1.44006 17.8323 6.16787 22.5601 12.0001 22.5601C14.1213 22.5601 15.8401 20.8413 15.8401 18.7201V18.2401C15.8401 17.763 15.8422 17.619 15.8566 17.5113L15.8569 17.5093C15.9702 16.6481 16.6481 15.9702 17.5093 15.8569L17.5113 15.8566C17.619 15.8422 17.763 15.8401 18.2401 15.8401H18.7201C20.8413 15.8401 22.5601 14.1213 22.5601 12.0001C22.5601 6.16787 17.8323 1.44006 12.0001 1.44006ZM3.36006 12.0001C3.36006 7.22826 7.22826 3.36006 12.0001 3.36006C16.7719 3.36006 20.6401 7.22826 20.6401 12.0001C20.6401 13.0609 19.7809 13.9201 18.7201 13.9201L18.1734 13.92C17.7929 13.9199 17.5094 13.9199 17.2578 13.9534C15.5357 14.1804 14.1803 15.536 13.9534 17.2582C13.9199 17.5097 13.9199 17.7931 13.92 18.1734L13.9201 18.7201C13.9201 19.7809 13.0609 20.6401 12.0001 20.6401C7.22826 20.6401 3.36006 16.7719 3.36006 12.0001Z" clip-rule="evenodd"/></svg>

<svg xmlns="http://www.w3.org/2000/svg" width="24" height="24" fill="none"><path fill="currentColor" d="M10.08 5.28a1.92 1.92 0 1 0 0 3.84 1.92 1.92 0 0 0 0-3.84m5.76.96a1.92 1.92 0 1 0 0 3.84 1.92 1.92 0 0 0 0-3.84M7.2 10.08a1.92 1.92 0 1 0 0 3.84 1.92 1.92 0 0 0 0-3.84"/><path fill="currentColor" fill-rule="evenodd" d="M12 1.44C6.168 1.44 1.44 6.168 1.44 12S6.168 22.56 12 22.56a3.84 3.84 0 0 0 3.84-3.84v-.48c0-.477.002-.621.017-.729v-.002a1.92 1.92 0 0 1 1.652-1.652h.002c.108-.015.252-.017.73-.017h.48A3.84 3.84 0 0 0 22.56 12c0-5.832-4.729-10.56-10.56-10.56M3.36 12a8.64 8.64 0 1 1 17.28 0c0 1.06-.86 1.92-1.92 1.92h-.547c-.38 0-.664 0-.915.033a3.84 3.84 0 0 0-3.305 3.305c-.033.252-.033.535-.033.915v.547c0 1.06-.86 1.92-1.92 1.92A8.64 8.64 0 0 1 3.36 12" clip-rule="evenodd"/></svg>
